icons/svg/32x32/mail/filled.svg

<svg xmlns="http://www.w3.org/2000/svg" width="32" height="32" viewBox="0 0 32 32">
  <path fill-rule="evenodd" d="M21.9014,16.6348 L28.4854,24.0418 C29.5914,22.2108 30.0004,19.6158 30.0004,15.9998 C30.0004,13.8788 29.8484,12.1268 29.5104,10.6558 L21.9014,16.6348 Z M20.3274,17.8718 L16.0004,21.2718 L11.6724,17.8718 L4.8144,25.5888 C6.9194,27.3928 10.4184,27.9998 16.0004,27.9998 C21.5824,27.9998 25.0814,27.3928 27.1854,25.5888 L20.3274,17.8718 Z M10.0984,16.6348 L2.4894,10.6558 C2.1514,12.1268 2.0004,13.8788 2.0004,15.9998 C2.0004,19.6158 2.4084,22.2108 3.5144,24.0418 L10.0984,16.6348 Z M3.1654,8.6438 C3.5814,7.7578 4.1144,7.0118 4.8134,6.4118 C6.9184,4.6078 10.4184,3.9998 16.0004,3.9998 C21.5824,3.9998 25.0824,4.6078 27.1864,6.4118 C27.8854,7.0118 28.4194,7.7578 28.8354,8.6438 L16.0004,18.7288 L3.1654,8.6438 Z"/>
</svg>

<svg width="32" height="32" fill="none" xmlns="http://www.w3.org/2000/svg">
  <path fill-rule="evenodd" clip-rule="evenodd" d="M21.901 16.635l6.584 7.407C29.591 22.21 30 19.616 30 16c0-2.121-.152-3.873-.49-5.344l-7.609 5.979zm-1.574 1.237L16 21.272l-4.328-3.4-6.858 7.717c2.105 1.804 5.604 2.41 11.186 2.41s9.081-.606 11.185-2.41l-6.858-7.717zm-10.229-1.237l-7.609-5.98C2.151 12.128 2 13.88 2 16c0 3.616.408 6.21 1.514 8.042l6.584-7.407zM3.165 8.644c.416-.886.95-1.632 1.648-2.232C6.918 4.608 10.418 4 16 4c5.582 0 9.082.608 11.186 2.412.7.6 1.233 1.346 1.65 2.232L16 18.729 3.165 8.644z" fill="#000"/>
</svg>
